X: 31780
T: Patrick's Night
R: reel
M: 4/4
K: Dmajor
|:AG|FD D/E/D EDB,A,|DEFA BddB|AF F/G/F dBAF|E2 DF EDB,D|
FD D/E/D EDB,A,|DEFA BddB|AF F/G/F dBAF|EDEF D2:|
|:FA|d/e/d ce dBAF|DFF>z DEFA|d/e/d ce dBAc|BEFA Be (3e/f/e/ c|
dfec dcdB|AFF>z BF GF/E/|DEFA dBAF|EDEF D2:|

